!!!!SEGMENT: pl-wtm--r-105-n_noskowski-zygmunt--ksiezyc.krn
!!!cenid: 18xx:2292
!!!COM: Noskowski, Zygmunt
!!!COM-rismID: pe106604
!!!CDT: 1846/05/02-1909/07/23
!!!CNT: Polish
!!!OTL: Księżyc
!!!PDT:
!!!AGN:
!!!YEC: Copyright 2022 Narodowy Instytut Fryderyka Chopina (https://polishscores.org)
!!!YEM: License CC-BY-4.0 (https://creativecommons.org/licenses/by/4.0)
!!!SMS-siglum: PL-Wtm
!!!SMS-shelfmark: R 105/N
!!!SMS-shelfwork: W
!!!SMS-variant:
!!!SMS-altvar:
!!!NIFC-rismSourceID: 1001101668
!!!NIFC-rismChildID: 1001101668
!!!NIFC-islandoraID:
!!!URL-pdf-islandora:
!!!URL-scan:
!!!IIIF:
!!!ONB-nifc:
!!!AIN: 1 piano 1 vox
!!!OMD:
!!!OMD-mod: Andantino cantabile
!!!key: c#
**kern	**kern	**dynam	**kern	**text	**dynam
*part2	*part2	*	*part1	*	*
*staff3	*staff2	*	*staff1	*	*
*Ipiano	*Ipiano	*	*Ivox	*	*
*I"	*I"[Fortepian]	*	*I"[Głos]	*	*
*mI"Pianoforte	*mI"Pianoforte	*	*mI"Voice	*	*
*clefF4	*clefG2	*	*clefG2	*	*
*kcancel	*kcancel	*	*kcancel	*	*
*k[f#c#g#d#]	*k[f#c#g#d#]	*	*k[f#c#g#d#]	*	*
*c#:	*c#:	*	*c#:	*	*
*M4/4	*M4/4	*	*M4/4	*	*
*met(c)	*met(c)	*	*met(c)	*	*
*mmet(c)	*mmet(c)	*	*mmet(c)	*	*
=1	=1	=1	=1	=1	=1
!	!LO:TX:a:t=Andantino cantabile:mod=	!	!	!	!
[2.CC#^^/	4r	p	1r	.	.
.	(4b 4g# 4e/	.	.	.	.
.	4a 4f# 4c#/	.	.	.	.
8CC#/L]	4b 4g# 4e/)	.	.	.	.
(16C#/L	.	.	.	.	.
16CC#/JJ)	.	.	.	.	.
=2	=2	=2	=2	=2	=2
[2.CC#^^/	4r	.	1r	.	.
!	!	!LO:MO:null:mod=<	!	!	!
.	(4a 4f# 4c#/	.	.	.	.
!	!	!LO:MO:mod=.	!	!	!
.	4g# 4e 4B/	<	.	.	.
8CC#/L]	4a 4f# 4c#/)	.	.	.	.
(16C#/L	.	.	.	.	.
16CC#/JJ)	.	[[	.	.	.
=3	=3	=3	=3	=3	=3
[2.CC#^^/	4r	.	1r	.	.
.	(4f# 4dn 4A/	.	.	.	.
.	4e 4c# 4G#/	.	.	.	.
8CC#/L]	4f# 4d 4A/)	.	.	.	.
(16C#/L	.	.	.	.	.
16CC#/JJ)	.	.	.	.	.
=4	=4	=4	=4	=4	=4
(4.CC#/	(4g# 4e 4c#/	.	1r	.	.
.	4e 4c# 4G#/)	>	.	.	.
16BBB/LL	.	.	.	.	.
16AAA/JJ)	.	.	.	.	.
(4.GGG#/	(4g# 4d#X 4B/	.	.	.	.
!	!	!LO:MO:mod=.	!	!	!
.	4d# 4B 4G#/)	]	.	.	.
16AAA/LL	.	.	.	.	.
!	!	!LO:MO:null:mod=]]	!	!	!
16GGG#/JJ)	.	.	.	.	.
=5	=5	=5	=5	=5	=5
!	!	!	!	!	!LO:DY:a
2.CC#/	(4g# 4e 4c#/	p	4.g#/	Księ-	p
.	4e 4c# 4G#/	.	.	.	.
.	.	.	8e/	-życ	.
.	4g# 4e 4c#/	.	(8b/L	ci-	.
.	.	.	8a/J)	.	.
(8.CC#/L	4e 4c# 4G#/)	.	4g#/	-cho	.
16BBB/Jk)	.	.	.	.	.
!!LO:LB:g=original
=6	=6	=6	=6	=6	=6
2.AAA/	(4f# 4d# 4c#/	.	(8f#/	pły-	.
.	.	.	4ee\)	.	.
.	4d# 4c# 4F#/	.	.	.	.
.	.	.	8dd#\	-nie	.
.	4f# 4d# 4c#/	.	4cc#\	gó-	.
(8.BBB/L	4d# 4c# 4F#/)	.	4dd#\	-rą,	.
16AAA/Jk)	.	.	.	.	.
=7	=7	=7	=7	=7	=7
!	!	!	!	!LO:MO:mod=po-	!
2.GGG#/	(4d# 4c# 4F#/	.	8d#/	Po-	.
.	.	.	8e/	-nad	.
.	4f# 4d# 4c#/)	.	8f#/	zie-	.
.	.	.	8cc#\	-mią	.
.	(4a 4d# 4B#X/	.	(8b#X/L	pły-	.
.	.	.	8a/J)	.	.
(8.GG#/L	4d# 4B# 4A/)	.	4b#\	-nie	.
16GGG#/Jk)	.	.	.	.	.
=8	=8	=8	=8	=8	=8
2.CC#/	(4g# 4e 4c#/	.	(8g#/L	w_mgły,	.
.	.	.	[>8cc#/J)	.	.
.	4e 4c# 4G#/	.	2cc#\]	.	.
.	4g# 4e 4c#/	.	.	.	.
(8.BBB/L	4e 4c# 4G#/)	.	4r	.	.
16AAA#X/Jk)	.	.	.	.	.
=9	=9	=9	=9	=9	=9
!	!	!	!	!LO:MO:mod=zie-	!LO:MO:null:mod=<
(2.GGG#/	(4g# 4d# 4Bn/	.	8dd#\	Zie-	.
!	!	!	!	!	!LO:MO:mod=.
.	.	.	8b\	-mia	<
.	4d# 4B 4G#/)	<	8f##X/	do-	.
.	.	.	8g#/	-łem	.
.	(4a#X 4e 4c#/	.	4a#X/	śni	.
!	!	!LO:MO:mod=.	!	!	!
4GG#/)	4e 4c# 4G#/)	[	(8g#/L	po-	.
!	!	!LO:MO:null:mod=[[	!	!	!LO:MO:mod=[[
.	.	.	8e/J)	.	[
!!LO:LB:g=original
=10	=10	=10	=10	=10	=10
!	!	!	!	!	!LO:MO:null:mod=>
4..GGG#/	(4b 4f# 4d#/	.	(4d#/	-nu-	.
!	!	!	!LO:MO:mod=!null:null	!	!
!	!	!	!LO:N:acc=n#	!	!LO:MO:mod=.
.	4f# 4d# 4B/)	>	8f#X/L	.	>
.	.	.	8g#/J)	.	.
(16GG#/	.	.	.	.	.
!	!	!	!	!	!LO:MO:null:mod=]
4..CC#/)	(4a#X 4e 4c#/	.	4e/	-ro	.
!	!	!LO:MO:mod=.	!	!	!LO:MO:mod=.
.	4e 4c# 4G#/)	]]	4r	.	]
!	!	!LO:MO:null:mod=]]	!	!	!
(16BBB/	.	.	.	.	.
=11	=11	=11	=11	=11	=11
!	!	!	!	!LO:MO:mod=ciem-	!LO:DY:a
4..AAA#X/)	(4a#X 4e 4c#/	p	8c#/	Ciem-	p
.	.	.	8d#/	-ne	.
.	4e 4c# 4G#/)	.	4e/	sny,	.
(16AA#X/	.	.	.	.	.
4..DD#/)	(4b 4f##X 4c#/	.	8r	.	.
.	.	.	4b\	ciem-	.
.	4d# 4c# 4F##X/)	.	.	.	.
.	.	.	8f##X/	-ne	.
(16DD#/	.	.	.	.	.
=12	=12	=12	=12	=12	=12
4..GGG#/)	(4g# 4d# 4B/	.	2g#/	sny.	.
.	4d# 4B 4G#/)	.	.	.	.
(16GG#/	.	.	.	.	.
!LO:SIC:s=2FF#T	!	!	!	!	!
2FF#TT/)	(4g# 4d# 4B#X/	.	2r	.	.
.	4d# 4B# 4G#/)	.	.	.	.
(16qqEE/LL	.	.	.	.	.
16qqDD#/JJ	.	.	.	.	.
=13	=13	=13	=13	=13	=13
*ped	*	*	*	*	*
2CC#/)	(12g#L 12e/	pp	4.g#/	Chmu-	.
.	12c# 12G#/	.	.	.	.
.	12g#J 12e/	.	.	.	.
.	4c# 4G#/)	.	.	.	.
.	.	.	8e/	-ry	.
!	!LO:MO:mod=*null:null	!	!	!	!
*	*Xbrackettup	*	*	*	*
!	!LO:MO:mod=!LO&colon;TX&colon;b&colon;i&colon;t=con delicatezza	!	!	!	!
!	!LO:TX:b:t=con delicatezza.	!	!	!	!
!	!LO:MO:mod=!null:null	!	!	!	!
!	!LO:TUP:a	!	!	!	!
2r	12r	.	(8b/L	w_gó-	.
.	(12gg#L 12ee\	.	.	.	.
.	.	.	8a/J)	.	.
.	12cc#J 12g#\)	.	.	.	.
.	12r	.	4g#/	-rze	.
.	(12g#L 12e/	.	.	.	.
*Xped	*	*	*	*	*
.	12c#J 12G#/)	.	.	.	.
!!LO:LB:g=original
=14	=14	=14	=14	=14	=14
!	!LO:MO:mod=*Xtuplet	!	!	!	!
*ped	*null	*	*	*	*
2AAA/	(12f#L 12d#/	.	(8f#/	to-	.
.	12c# 12F#/	.	.	.	.
.	.	.	4ee\)	.	.
.	12f#J 12d#/	.	.	.	.
.	4c# 4F#/)	.	.	.	.
.	.	.	8dd#\	-czą	.
2r	12r	.	4cc#\	woj-	.
.	(12ff#L 12dd#\	.	.	.	.
.	12cc#J 12f#\)	.	.	.	.
.	12r	.	4dd#\	-nę,	.
.	(12f#L 12d#/	.	.	.	.
*Xped	*	*	*	*	*
.	12c#J 12F#/)	.	.	.	.
=15	=15	=15	=15	=15	=15
*ped	*	*	*	*	*
!	!	!	!	!LO:MO:mod=zie-	!
4GGG#t\	12r	.	8d#/	Zie-	.
.	(>>12d#L 12c#/	.	.	.	.
.	.	.	8e/	-mia	.
.	12F<#J 12D#</	.	.	.	.
4GGG#\	12f#L 12d#/	.	8f#/	do-	.
!	!LO:SIC:s=12c#< 12F#<	!	!	!	!
.	12c# 12F#</	.	.	.	.
.	.	.	8cc#\	-łem	.
*Xped	*	*	*	*	*
.	12f#J 12d#/)	.	.	.	.
*ped	*	*	*	*	*
4GGG#t\	12r	.	(8b#X/L	głu-	.
!	!LO:SIC:s=(>12d#L 12B#	!	!	!	!
.	(>12d#L 12B#<X/	.	.	.	.
.	.	.	8a/J)	.	.
.	12F#<J 12D#</	.	.	.	.
4GGG#\	12g#L 12d#/	.	4b#\	-cho	.
.	12B#< 12F#</	.	.	.	.
*Xped	*	*	*	*	*
.	12g#J 12d#/)	.	.	.	.
=16	=16	=16	=16	=16	=16
*ped	*	*	*	*	*
!LO:SIC:s=(<2CC#	!	!	!	!	!
(2CC#\	12r	.	(8g#/L	drży,	.
.	(>>12eL 12c#/	.	.	.	.
.	.	.	[>8cc#/J)	.	.
.	12G#<J 12E</	.	.	.	.
.	4g# 4e/)	.	2cc#\]	.	.
2C#/)	12r	.	.	.	.
!	!LO:SIC:s=(>12g#L 12e	!	!	!	!
.	(12g#L 12e/	.	.	.	.
.	12c#J 12G#/	.	.	.	.
*Xped	*	*	*	*	*
.	4cc# 4g#\)	.	4r	.	.
=17	=17	=17	=17	=17	=17
*	*^	*	*	*	*
*ped	*	*	*	*	*	*
!	!	!	!	!	!LO:MO:mod=sny	!
2CC#/	4bn 4g# 4e/	4ryy	.	8bn\	Sny	.
.	.	.	.	8g#/	ją	.
.	12r	4ryy	.	8e/	bu-	.
.	(12eL 12c# 12G#/	.	.	.	.	.
.	.	.	.	8b\	-dzą	.
*Xped	*	*	*	*	*	*
!	!	!	!LO:MO:mod=.	!	!	!
.	12bJ 12g# 12e/)	.	>	.	.	.
!	!	!	!LO:MO:null:mod=>	!	!	!
2C#/	(<8b/L	4e 4c#\	.	(8b\	nie-	.
.	8a/J)	.	.	4a/)	.	.
.	12r	4ryy	.	.	.	.
!	!	!	!LO:MO:mod=.	!	!	!
.	(12eL 12c# 12A/	.	]	.	.	.
.	.	.	.	8g#/	-spo-	.
!	!	!	!LO:MO:null:mod=]]	!	!	!
.	12g#J 12e 12B/)	.	.	.	.	.
!!LO:PB:g=original
=18	=18	=18	=18	=18	=18	=18
2FF#/	4f#/	4.e 4.A\	<	(4f#/	-koj-	.
.	8g#/L	.	.	8g#/L	.	.
.	8f#/J	8d# 8A\	[	8f#/J)	.	.
[4AA\	2c# 2F#< 2D#</	2ryy	.	4c#/	-ne,	.
.	.	.	>	.	.	.
!LO:TUP:b:problem=klamra łukowa	!	!	!	!	!	!
12AA\L]	.	.	.	4r	.	.
12BB\	.	.	.	.	.	.
12AA\J	.	.	]]	.	.	.
*	*v	*v	*	*	*	*
=19	=19	=19	=19	=19	=19
2GG#\	4B#<X 4F#< 4D#</	p	8B#X/	ciem-	.
.	.	.	8c#/	-ne	.
!	!LO:MO:mod=*tuplet	!	!	!	!
*	*null	*	*	*	*
.	12r	.	4d#/	sny,	.
.	(>>12d#L 12B#X/	.	.	.	.
.	12F#<J 12D#</	.	.	.	.
2GGG#/	4d# 4B#/)	.	8r	.	.
.	.	.	4f#/	ciem-	.
.	12r	.	.	.	.
.	(12f#L 12B#/	.	.	.	.
.	.	.	8e/	-ne	.
.	12eJ 12F#</)	.	.	.	.
=20	=20	=20	=20	=20	=20
!	!LO:MO:null:mod=*Xtuplet	!	!	!	!
*	*null	*	*	*	*
2.CC#\	12r	.	2c#/	sny!	.
.	(<<12c#<L 12E</	.	.	.	.
.	12G<#/J	.	.	.	.
.	12A</L	<	.	.	.
.	12G#</	.	.	.	.
.	12E</J	.	.	.	.
.	12D#</L	.	2r	.	.
.	12E</	.	.	.	.
.	12F##<X/J	.	.	.	.
4r	12G#</L	.	.	.	.
.	12c#/	.	.	.	.
.	12d#/J)	[[	.	.	.
=21	=21	=21	=21	=21	=21
!	!	!LO:HP:a:t=accelerando e crescendo	!	!	!
1rE	(12e/L	<	1r	.	.
.	12dd#/	.	.	.	.
.	12cc#/J	.	.	.	.
.	12a/L	.	.	.	.
.	12g#/	.	.	.	.
.	12d#/J	.	.	.	.
.	12e/L	.	.	.	.
.	12B#<X/	.	.	.	.
.	12c#</J	.	.	.	.
.	12A</L	.	.	.	.
.	12G#</	.	.	.	.
.	12E</J)	.	.	.	.
!!LO:LB:g=original
=22	=22	=22	=22	=22	=22
4rEE	(12D#</L	.	1r	.	.
.	12E</	.	.	.	.
.	12G#</J	.	.	.	.
2.C# 2.CC#\	12c#</L	.	.	.	.
.	12G#</	.	.	.	.
.	12e</J	.	.	.	.
.	12d#</L	.	.	.	.
.	12c#</	.	.	.	.
.	12B#<X/J	.	.	.	.
.	12c#</L	.	.	.	.
!	!LO:SIC:s=12G#</	!	!	!	!
.	12G#</)	.	.	.	.
!	!LO:SIC:s=12E</J)	!	!	!	!
.	12E</J	.	.	.	.
=23	=23	=23	=23	=23	=23
4rEE	(12D#</L	.	1r	.	.
.	12E</	.	.	.	.
.	12G#</J	.	.	.	.
2.BBn 2.BBBn\	12c#</L	.	.	.	.
.	12G#</	.	.	.	.
.	12e</J	.	.	.	.
.	12d#</L	.	.	.	.
.	12c#</	.	.	.	.
.	12B#<X/J	.	.	.	.
.	12c#</L	.	.	.	.
.	12G#</	.	.	.	.
.	12E</J)	.	.	.	.
=24||	=24||	=24||	=24||	=24||	=24||
!!!OMD:
!!!OMD-mod: Quasi allegro
*k[f#c#g#]	*k[f#c#g#]	*	*k[f#c#g#]	*	*
*ped	*	*	*	*	*
!	!	!	!LO:TX:a:t=Quasi Allegro:mod=	!	!LO:DY:a
2AA 2AAA\	(<<16C<^^/LL	mf	4c#/	Ty	f
.	16E</	.	.	.	.
.	16A</	.	.	.	.
.	16c#</JJ)	.	.	.	.
.	(<<16F#<^^/LL	.	4f#/	po-	.
.	16A</	.	.	.	.
.	16c#</	.	.	.	.
.	16f#/JJ)	.	.	.	.
2r	(<<16D#<X^^/LL	.	4d#X/	-wró-	.
.	16F#</	.	.	.	.
.	16A</	.	.	.	.
.	16d#X/JJ)	.	.	.	.
.	(<<16E<^^/LL	.	8e/	-cisz	.
.	16A</	.	.	.	.
.	16c#/	.	16r	.	.
.	16e/JJ)	.	16a/	sło-	.
!!LO:LB:g=original
=25	=25	=25	=25	=25	=25
2AA 2AAA\	(<<16E#<X^^/LL	.	4e#X/	-necz-	.
.	16A</	.	.	.	.
.	16c#/	.	.	.	.
.	16e#X/JJ)	.	.	.	.
!	!	!LO:MO:mod=!LO&colon;HP&colon;b=2	!	!	!
!	!	!null	!	!	!
.	(<<16F#<^^/LL	<	4f#/	-ko,	.
.	16A</	.	.	.	.
.	16d/	.	.	.	.
.	16f#/JJ)	.	.	.	.
2r	(<<16A<^^/LL	.	2r	.	.
.	16d/	.	.	.	.
.	16f#/	.	.	.	.
.	16a/JJ)	.	.	.	.
.	(16d^^/LL	.	.	.	.
.	16f#/	.	.	.	.
!	!	!LO:MO:mod=.	!	!	!
.	16a/	[	.	.	.
!	!	!LO:MO:null:mod=[[	!	!	!
.	16dd/JJ)	.	.	.	.
=26	=26	=26	=26	=26	=26
2BB 2BBB/	(16G#^^/LL	.	4g#/	ty	.
.	16d/	.	.	.	.
.	16en/	.	.	.	.
.	16g#/JJ)	.	.	.	.
.	(16A^^/LL	.	4a/	po-	.
.	16d/	.	.	.	.
.	16e/	.	.	.	.
.	16a/JJ)	.	.	.	.
2E 2EE/	(16A#X^^/LL	.	4a#X/	-wró-	.
.	16d/	.	.	.	.
.	16e/	.	.	.	.
.	16a#X/JJ)	.	.	.	.
.	(16c#^^/LL	.	8cc#\	-cisz,	.
.	16e/	.	.	.	.
.	16g#/	.	16r	.	.
.	16B/JJ)	.	16b\	ko-	.
=27	=27	=27	=27	=27	=27
2F# 2FF#/	(16d^^/LL	.	4dd\	-cha-	.
.	16f#/	.	.	.	.
.	16an/	.	.	.	.
.	16dd/JJ)	.	.	.	.
.	(16c#^^/LL	.	4cc#\	-ne,	.
.	16f#/	.	.	.	.
.	16a/	.	.	.	.
.	16cc#/JJ)	.	.	.	.
(4E 4EE/	16r	.	4r	.	.
.	(16c#/LL	.	.	.	.
.	16f#/	.	.	.	.
.	16a/JJ	.	.	.	.
4D 4DD/)	16cc#/LL	.	(8cc#\L	Gdy	.
.	16a/	.	.	.	.
.	16f#/	.	8dd\J)	.	.
.	16ddJJ 16d/)	.	.	.	.
!!LO:LB:g=original
=28	=28	=28	=28	=28	=28
2C# 2CC#/	16r	.	4ee\	noc	.
.	(16e/LL	.	.	.	.
.	16f#/	.	.	.	.
.	16a/JJ	.	.	.	.
.	8ee\)	.	2f#/	pierzch-	.
.	8r	.	.	.	.
2D 2DD\	16r	.	.	.	.
.	(<<16F#</LL	.	.	.	.
.	16A</	.	.	.	.
.	16c#/JJ	.	.	.	.
.	16f#/LL	.	[4cc#\	-nie	.
.	16c#/	.	.	.	.
.	16A</	.	.	.	.
.	16F#</JJ)	.	.	.	.
=29	=29	=29	=29	=29	=29
2BB 2BBB\	16r	.	4cc#\]	.	.
.	(<<16F#</LL	.	.	.	.
.	16B</	.	.	.	.
.	16d/JJ	.	.	.	.
.	16f#/LL	.	(2d/	z_tej	.
.	16d/	.	.	.	.
.	16B</	.	.	.	.
.	16F#</JJ)	.	.	.	.
2GG# 2GGG#\	16r	.	.	.	.
.	(<<16F#</LL	.	.	.	.
.	16B</	.	.	.	.
.	16d/JJ	.	.	.	.
.	16f#/LL	.	8b/L	.	.
.	16d/	.	.	.	.
.	16B</	.	8a/J)	.	.
.	16F#</JJ)	.	.	.	.
=30	=30	=30	=30	=30	=30
*^	*	*	*	*	*
2ryy	2BB 2EE\	16r	.	(<2g#/	zie-	.
.	.	(<<16G#</LL	.	.	.	.
.	.	16B</	.	.	.	.
.	.	16e/JJ	.	.	.	.
.	.	16g#/LL	.	.	.	.
.	.	16e/	.	.	.	.
.	.	16B</	.	.	.	.
.	.	16G#</JJ)	.	.	.	.
(4C#//	2EE\	16r	.	8f#/L	.	.
.	.	(16F#</LL	.	.	.	.
.	.	16A#<X/	.	8a#X/J	.	.
.	.	16e/JJ	.	.	.	.
4D#X//)	.	16f#/LL	.	4b\)	.	.
.	.	16d#X/	.	.	.	.
.	.	16B</	.	.	.	.
.	.	16An</JJ)	.	.	.	.
*v	*v	*	*	*	*	*
!!LO:LB:g=original
=31	=31	=31	=31	=31	=31
2.E 2.EE/	4r	.	2e/	-mi,	.
.	(16G#^^/LL	.	.	.	.
.	16B/	.	.	.	.
.	16e/	.	.	.	.
.	16g#/JJ)	.	.	.	.
.	(16B^^/LL	.	2r	.	.
.	16e/	.	.	.	.
.	16g#/	.	.	.	.
.	16b/JJ)	.	.	.	.
4r	(16G#^^/LL	.	.	.	.
.	16B/	.	.	.	.
.	16e/	.	.	.	.
.	16g#/JJ)	.	.	.	.
=32	=32	=32	=32	=32	=32
!	!	!	!	!LO:MO:mod=wró-	!
2BB 2BBB\	(<<16F#<^^/LL	.	4f#/	Wró-	.
.	16B</	.	.	.	.
.	16dn/	.	.	.	.
.	16f#/JJ)	.	.	.	.
.	(16c#^^/LL	.	4cc#\	-cisz	.
.	16d/	.	.	.	.
.	16f#/	.	.	.	.
.	16cc#/JJ)	.	.	.	.
2D 2DD\	(16A#X^^/LL	.	4a#X/	do	.
.	16d/	.	.	.	.
.	16f#/	.	.	.	.
.	16a#X/JJ)	.	.	.	.
.	(16B^^/LL	.	8b\	nas	.
.	16d/	.	.	.	.
.	16f#/	.	16r	.	.
.	16b/JJ)	.	16f#/	prze-	.
=33	=33	=33	=33	=33	=33
2E 2EE/	16r	.	4a/	-czys-	.
.	(16An^^/LL	.	.	.	.
.	16B/	.	.	.	.
.	16e/JJ	.	.	.	.
.	16G#/LL	.	4g#/	-te,	.
.	16B/	.	.	.	.
.	16e/	.	.	.	.
.	16g#/JJ)	.	.	.	.
2D#X 2DD#X/	16r	.	2r	.	.
!	!	!LO:MO:mod=!null:null	!	!	!
!	!	!LO:HP:a	!	!	!
.	(16G#/LL	<	.	.	.
.	16B#X/	.	.	.	.
.	16f#/JJ	.	.	.	.
.	16g#/LL	.	.	.	.
.	16f#/	.	.	.	.
!	!	!LO:MO:mod=.	!	!	!
.	16B#/	[	.	.	.
!	!	!LO:MO:null:mod=[[	!	!	!
.	16G#/JJ)	.	.	.	.
!!LO:PB:g=original
=34	=34	=34	=34	=34	=34
!	!	!	!	!	!LO:DY:a
2C# 2CC#/	16r	f	4g#/	mgłą	f
.	(16G#/LL	.	.	.	.
.	16c#/	.	.	.	.
.	16e#X/JJ	.	.	.	.
.	16g#/LL	.	4ee#X\	zło-	.
.	16e#/	.	.	.	.
.	16c#/	.	.	.	.
.	16G#/JJ)	.	.	.	.
2E#X 2EE#X/	16r	.	4b#X\	-cis-	.
.	(16B#X/LL	.	.	.	.
.	16e#/	.	.	.	.
.	16g#/JJ	.	.	.	.
.	16c#/LL	.	8cc#\	-tą	.
.	16e#/	.	.	.	.
.	16g#/	.	16r	.	.
.	16cc#/JJ)	.	16g#/	ob-	.
=35	=35	=35	=35	=35	=35
2F# 2FF#/	16r	.	4a#X/	-la-	.
.	(16A#X/LL	.	.	.	.
.	16c#/	.	.	.	.
.	16f#/JJ	.	.	.	.
.	16a#X/LL	.	4f#/	-ne	.
.	16f#/	.	.	.	.
.	16c#/	.	.	.	.
.	16A#/JJ)	.	.	.	.
2En 2EEn/	16r	.	4r	.	.
.	(16A#/LL	.	.	.	.
.	16c#/	.	.	.	.
.	16f#/JJ	.	.	.	.
.	16g#/LL	.	8.g#/	I	.
.	16c#/	.	.	.	.
.	16f#/	.	.	.	.
.	16a#X/JJ)	.	16a#X/	tchnie-	.
=36	=36	=36	=36	=36	=36
2D#X 2DD#X/	16r	.	(2.bn\	-nia-	.
.	(16Bn/LL	.	.	.	.
.	16d#X/	.	.	.	.
.	16f#/JJ	.	.	.	.
.	16b/LL	.	.	.	.
.	16f#/	.	.	.	.
.	16d#/	.	.	.	.
.	16B/JJ)	.	.	.	.
2BB 2BBB/	16r	.	.	.	.
.	(16An/LL	.	.	.	.
.	16B/	.	.	.	.
.	16d#/JJ	.	.	.	.
.	16f#/LL	.	4f#/)	.	.
.	16d#/	.	.	.	.
.	16B/	.	.	.	.
.	16A/JJ)	.	.	.	.
!!LO:LB:g=original
=37	=37	=37	=37	=37	=37
2E 2EE/	16r	.	2g#/	-mi	.
.	(16G#/LL	.	.	.	.
.	16B/	.	.	.	.
.	16e/JJ	.	.	.	.
.	16g#/LL	.	.	.	.
.	16e/	.	.	.	.
.	16B/	.	.	.	.
.	16G#/JJ)	.	.	.	.
(4Dn 4DDn/	16r	.	4r	.	.
.	(16B/LL	.	.	.	.
.	16e/	.	.	.	.
.	16f#/JJ	.	.	.	.
4C# 4CC#/)	16g#/LL	.	(8g#/L	cie-	.
.	16c#/	.	.	.	.
.	16e/	.	8a/J)	.	.
.	16a/JJ)	.	.	.	.
=38	=38	=38	=38	=38	=38
2BB 2BBB/	16r	.	(2dd\	-płe-	.
.	(16d/LL	.	.	.	.
.	16f#/	.	.	.	.
.	16a/JJ	.	.	.	.
.	16dd/LL	.	.	.	.
.	16a/	.	.	.	.
.	16f#/	.	.	.	.
.	16d/JJ)	.	.	.	.
2AA 2AAA\	16r	.	4.d/	.	.
.	(<<16F#</LL	.	.	.	.
.	16B</	.	.	.	.
.	16d/JJ	.	.	.	.
.	16f#/LL	.	.	.	.
.	16d/	.	.	.	.
.	16B</	.	8f#/)	.	.
.	16F#</JJ)	.	.	.	.
=39	=39	=39	=39	=39	=39
2GG# 2GGG#\	16r	.	2e/	-mi!	.
.	(<<16E</LL	.	.	.	.
.	16B</	.	.	.	.
.	16d/JJ	.	.	.	.
.	16e/LL	.	.	.	.
.	16d/	.	.	.	.
.	16B/	.	.	.	.
.	16e/JJ)	.	.	.	.
!	!LO:TX:a:i:t= :mod=rit.	!	!	!	!
4FF# 4FFF#^>\	(<<16F#<^^/LL	.	2r	.	.
!	!LO:TX:t=ritenuto.:mod=	!	!	!	!
.	16A</	.	.	.	.
.	16d/	.	.	.	.
.	16f#/JJ)	.	.	.	.
4GG# 4GGG#^>\	(<<16E<^^/LL	.	.	.	.
.	16B</	.	.	.	.
.	16d/	.	.	.	.
.	16e/JJ)	.	.	.	.
!!LO:LB:g=original
=40	=40	=40	=40	=40	=40
2AA 2AAA\	(<<16C#<^^/LL	mf	4c#/	Ty	.
.	16E</	.	.	.	.
.	16A</	.	.	.	.
.	16c#</JJ)	.	.	.	.
.	(<<16F#<^^/LL	.	4f#/	za-	.
.	16A</	.	.	.	.
.	16c#/	.	.	.	.
.	16f#/JJ)	.	.	.	.
2r	(<<16D#<X^^/LL	.	4d#X/	-kwit-	.
.	16F#</	.	.	.	.
.	16A</	.	.	.	.
.	16d#X/JJ)	.	.	.	.
.	(<<16E<^^/LL	.	8e/	-niesz,	.
.	16A</	.	.	.	.
.	16c#/	.	16r	.	.
.	16e/JJ)	.	16a/	ró-	.
=41	=41	=41	=41	=41	=41
2AA 2AAA\	(<<16E#<X^^/LL	.	4e#X/	-życz-	.
.	16A</	.	.	.	.
.	16c#/	.	.	.	.
.	16e#X/JJ)	.	.	.	.
.	(<<16F#<^^/LL	.	4f#/	-ko	.
.	16A</	.	.	.	.
.	16dn/	.	.	.	.
.	16f#/JJ)	.	.	.	.
2r	(<<16A<^^/LL	.	2r	.	.
.	16d/	.	.	.	.
.	16f#/	.	.	.	.
.	16a/JJ)	.	.	.	.
.	(16d^^/LL	.	.	.	.
.	16f#/	.	.	.	.
.	16a/	.	.	.	.
.	16dd/JJ)	.	.	.	.
=42	=42	=42	=42	=42	=42
2BB 2BBB/	(16G#^^/LL	.	4g#/	ty	.
.	16d/	.	.	.	.
.	16en/	.	.	.	.
.	16g#/JJ)	.	.	.	.
.	(16A^^/LL	.	4a/	o-	.
.	16d/	.	.	.	.
.	16e/	.	.	.	.
.	16a/JJ)	.	.	.	.
2E 2EE/	(16A#X^^/LL	.	4a#X/	-sy-	.
.	16d/	.	.	.	.
.	16e/	.	.	.	.
.	16a#X/JJ)	.	.	.	.
.	(16c#^^/LL	.	8.cc#\	-piesz	.
.	16e/	.	.	.	.
.	16g#/	.	.	.	.
.	16B/JJ)	.	16b\	się	.
!!LO:LB:g=original
=43	=43	=43	=43	=43	=43
2E 2EE^^/	(16d^^/LL	.	4dd\	kwia-	.
.	16gn/	.	.	.	.
.	16b-X/	.	.	.	.
.	16dd/JJ)	.	.	.	.
.	(16cn^^/LL	.	4ccn\	-tem,	.
.	16g/	.	.	.	.
.	16b-/	.	.	.	.
.	16ccn/JJ)	.	.	.	.
(4Gn\	16r	.	2r	.	.
.	(16c/LL	>	.	.	.
.	16e/	.	.	.	.
.	16b-/JJ	.	.	.	.
4Cn/)	16cc/LL	.	.	.	.
.	16b-/	.	.	.	.
.	16e/	.	.	.	.
.	16c/JJ)	]]	.	.	.
=44	=44	=44	=44	=44	=44
2Fn 2FFn/	16r	p	2r	.	.
.	(16A/LL	.	.	.	.
.	16cn/	.	.	.	.
.	16fn/JJ	.	.	.	.
.	16a/LL	.	.	.	.
.	16f/	.	.	.	.
.	16c/	.	.	.	.
.	16A/JJ)	.	.	.	.
!	!	!	!	!	!LO:DY:a
4E 4EE/	16r	.	4a/	Kie-	p
.	(16A/LL	.	.	.	.
.	16f/	.	.	.	.
.	16c/JJ	.	.	.	.
4D 4DD/	16a/LL	.	4b-X\	-dy	.
.	16f/	.	.	.	.
.	16c/	.	.	.	.
.	16A/JJ)	.	.	.	.
=45	=45	=45	=45	=45	=45
4Cn 4CCn/	16r	.	(4ccn\	słon-	.
.	(16cn/LL	.	.	.	.
.	16gn/	.	.	.	.
.	16e/JJ)	.	.	.	.
!	!	!LO:MO:mod=!null:null	!	!	!LO:MO:mod=!null:null
!	!	!LO:HP:t=cresc	!	!	!LO:HP:t=cresc
4B-X 4BB-X\	16r	<	4gn/)	.	<
.	(16c/LL	.	.	.	.
.	16e/	.	.	.	.
.	16g/JJ)	.	.	.	.
4A 4AA\	16r	.	4a/	-ce	.
.	(16c/LL	.	.	.	.
.	16e/	.	.	.	.
.	16a/JJ)	.	.	.	.
4Gn 4GGn\	16r	.	4b-X\	cię	.
.	(16c/LL	.	.	.	.
.	16e/	.	.	.	.
.	16b-X/JJ)	.	.	.	.
!!LO:LB:g=original
=46	=46	=46	=46	=46	=46
4.Fn 4.FFn/	16r	.	(2a/	zbu-	.
.	(16A/LL	.	.	.	.
.	16fn/	.	.	.	.
.	16cn/JJ	.	.	.	.
.	16a/LL	.	.	.	.
.	16f/	.	.	.	.
8E 8EE/	16c/	.	.	.	.
.	16A/JJ)	.	.	.	.
2D 2DD/	16r	.	4bn\	.	.
.	(16Bn/LL	.	.	.	.
.	16a/	.	.	.	.
.	16f/JJ	.	.	.	.
.	16ccn/LL	.	8ccn\L	.	.
.	16a/	.	.	.	.
.	16b/	.	8b\J)	.	.
.	16f/JJ)	.	.	.	.
=47	=47	=47	=47	=47	=47
2E 2EE/	16r	.	2g#X/	-dzi,	.
.	(16G#X/LL	.	.	.	.
.	16e/	.	.	.	.
.	16B/JJ	.	.	.	.
.	16g#/LL	.	.	.	.
.	16e/	.	.	.	.
.	16B/	.	.	.	.
.	16G#/JJ)	.	.	.	.
2r	(16b/LL	.	2r	.	.
.	16g#/	.	.	.	.
.	16e/	.	.	.	.
.	16B/JJ)	.	.	.	.
.	16g#/LL	.	.	.	.
.	16e/	.	.	.	.
.	16B/	.	.	.	.
.	16G#/JJ	.	.	.	.
=48	=48	=48	=48	=48	=48
!	!	!	!	!	!LO:DY:a
2BB 2BBB/	16r	f	4f#/	Kie-	f
.	(16F#/LL	.	.	.	.
.	16d/	.	.	.	.
.	16f#/JJ)	.	.	.	.
.	(16c#^^/LL	.	4cc#\	-dy	.
.	16d/	.	.	.	.
.	16f#/	.	.	.	.
.	16cc#/JJ)	.	.	.	.
2D 2DD/	(16A#X^^/LL	.	4a#X/	słoń-	.
.	16d/	.	.	.	.
.	16f#/	.	.	.	.
.	16a#X/JJ)	.	.	.	.
.	(16B^^/LL	.	8b\	-ce	.
.	16d/	.	.	.	.
.	16f#/	.	16r	.	.
.	16b/JJ)	.	16f#/	za-	.
!!LO:LB:g=original
=49	=49	=49	=49	=49	=49
2E 2EE/	16r	.	4a/	-świe-	.
.	(16An/LL	.	.	.	.
.	16B/	.	.	.	.
.	16e/JJ	.	.	.	.
.	16G#/LL	.	4g#/	-ci	.
.	16B/	.	.	.	.
.	16e/	.	.	.	.
.	16g#/JJ)	.	.	.	.
2D#X 2DD#X/	16r	.	8r	.	.
.	(16G#/LL	.	.	.	.
.	16f#/	.	8g#/	po-	.
.	16B#X/JJ	.	.	.	.
.	16g#/LL	.	8a#X/	-nad	.
.	16f#/	.	.	.	.
.	16B#/	.	8b#X\	u-	.
.	16G#/JJ)	.	.	.	.
=50	=50	=50	=50	=50	=50
2.C# 2.CC#/	16r	.	(2dd#X\	-śpio-	.
.	(16G#/LL	.	.	.	.
.	16f#/	.	.	.	.
.	16d#X/JJ	.	.	.	.
.	16g#/LL	.	.	.	.
.	16f#/	.	.	.	.
.	16d#/	.	.	.	.
.	16B#X/JJ)	.	.	.	.
.	(16g#/LL	.	4cc#\)	.	.
.	16e/	.	.	.	.
.	16c#/	.	.	.	.
.	16G#/JJ)	.	.	.	.
4BBn 4BBBn/	(16g#/LL	.	4ee\	-nym	.
.	16e/	.	.	.	.
.	16c#/	.	.	.	.
.	16G#/JJ)	.	.	.	.
=51	=51	=51	=51	=51	=51
2.AA 2.AAA/	16r	.	4ee\	świa-	.
.	(16F#/LL	.	.	.	.
.	16e/	.	.	.	.
.	16c#/JJ	.	.	.	.
.	16f#/LL	.	4f#/	-tem,	.
.	16e/	.	.	.	.
.	16c#/	.	.	.	.
.	16F#/JJ)	.	.	.	.
.	4f# 4d#X 4c#^^/	.	4r	.	.
4r	4r	.	(8dd#X\L	Kra-	.
.	.	.	8cc#\J)	.	.
!!LO:LB:g=original
=52	=52	=52	=52	=52	=52
1C# 1FF#	4bn: 4g#: 4d#X: 4Bn:/	.	4bn\	-i-	.
.	4a: 4f#: 4c#: 4A:/	.	4cc#\	-ną	.
.	2d# 2c# 2A/	.	4d#X/	mart-	.
.	.	.	4cc#\	-wych	.
=53	=53	=53	=53	=53	=53
2r	2r	.	(2.b\	lu-	.
2D#X 2DD#X/	16r	p	.	.	.
.	(16A/LL	.	.	.	.
.	16f#/	.	.	.	.
.	16c#/JJ	.	.	.	.
.	16a/LL	.	4a/)	.	.
.	16f#/	.	.	.	.
.	16c#/	.	.	.	.
.	16A/JJ)	.	.	.	.
=54	=54	=54	=54	=54	=54
2D#X 2GG#/	16r	.	2g#/	-dzi!	.
.	(16G#/LL	.	.	.	.
.	16f#/	.	.	.	.
.	16B#X/JJ	.	.	.	.
.	16g#/LL	<	.	.	.
.	16f#/	.	.	.	.
.	16B#/	.	.	.	.
.	16G#/JJ)	.	.	.	.
2GG# 2GGG#/	16r	.	2r	.	.
.	(16A/LL	.	.	.	.
.	16f#/	.	.	.	.
.	16c#/JJ	.	.	.	.
.	16g#/LL	.	.	.	.
.	16f#/	.	.	.	.
.	16c#/	.	.	.	.
.	16A/JJ)	[[	.	.	.
=55	=55	=55	=55	=55	=55
2GG#/	16r	.	1r	.	.
.	(16A#X/LL	.	.	.	.
.	16f#/	.	.	.	.
.	16c##X/JJ	.	.	.	.
.	16g#/LL	.	.	.	.
.	16f#/	.	.	.	.
.	16c##/	.	.	.	.
.	16A#/JJ)	.	.	.	.
2GGG#/	16r	.	.	.	.
.	(16Bn/LL	.	.	.	.
.	16f#/	.	.	.	.
.	16d#X/JJ	.	.	.	.
.	16g#/LL	.	.	.	.
.	16f#/	.	.	.	.
.	16d#/	.	.	.	.
.	16B/JJ)	.	.	.	.
!!LO:LB:g=original
=56	=56	=56	=56	=56	=56
[1GG#	16r	mf	1r	.	.
.	(16B#X/LL	.	.	.	.
.	16f#/	.	.	.	.
.	16d#X/JJ	.	.	.	.
.	16g#^^/LL	.	.	.	.
.	16f#/	.	.	.	.
.	16d#/	.	.	.	.
.	16B#/JJ	.	.	.	.
.	16bn^^/LL	.	.	.	.
.	16f#/	.	.	.	.
.	16d#/	.	.	.	.
.	16B#X/JJ	.	.	.	.
.	16a^^/LL	.	.	.	.
.	16f#/	.	.	.	.
.	16d#/	.	.	.	.
.	16B#/JJ	.	.	.	.
=57	=57	=57	=57	=57	=57
2GG#/]	16g#^^/LL	.	1ryy	.	.
.	16f#/	.	.	.	.
.	16d#X/	.	.	.	.
.	16B#X/JJ	.	.	.	.
!	!LO:TX:a:i:t= :mod=poco rall.	!	!	!	!
.	16g#/LL	.	.	.	.
!	!LO:TX:a:t=poco rallent.:mod=	!	!	!	!
.	16f#/	.	.	.	.
.	16d#/	.	.	.	.
.	16Bn/JJ	.	.	.	.
2r	16g#/LL	>	.	.	.
.	16f#/	.	.	.	.
.	16c##X/	.	.	.	.
.	16A#X/JJ	.	.	.	.
.	16g#/LL	.	.	.	.
.	16f#/	.	.	.	.
.	16c#X/	.	.	.	.
.	16An/JJ	]]	.	.	.
=58	=58	=58	=58	=58	=58
1r	16g#/LL	.	2r	.	.
.	16f#/	.	.	.	.
.	16B#X/	.	.	.	.
.	16G#/JJ)	.	.	.	.
.	4g#^^/	p	.	.	.
.	4g#/	.	4r	.	.
.	4g#/	.	8r	.	.
.	.	.	8g#/	Cóż	.
!!LO:LB:g=original
=59||	=59||	=59||	=59||	=59||	=59||
!!!OMD:
!!!OMD-mod: Andantino
*k[f#c#g#d#]	*k[f#c#g#d#]	*	*k[f#c#g#d#]	*	*
!	!	!	!LO:TX:a:t=Andantino:mod=	!	!
2.CC#/	(4g# 4e 4c#/	p	4.g#/	mi	.
.	4e 4c# 4G#/	.	.	.	.
.	.	.	8e/	zo-	.
.	4g# 4e 4c#/	.	(8b/L	-sta-	.
.	.	.	8a/J)	.	.
!	!	!	!	!LO:MO:mod=-ło?	!
(8.CC#/L	4e 4c# 4G#/)	.	4g#/	-ło!	.
16BBBn/Jk)	.	.	.	.	.
=60	=60	=60	=60	=60	=60
2.AAA/	(4f# 4d# 4c#/	.	8r	.	.
.	.	.	8f#/	To	.
.	4d# 4c# 4F#/	.	8.ee\	zwię-	.
.	.	.	16cc#\	-dłe	.
.	4f# 4d# 4c#/	.	4cc#\	kwie-	.
(8.BBB/L	4d# 4c# 4F#/)	.	8dd#\	-cie,	.
.	.	.	16r	.	.
!	!	!	!	!LO:MO:mod=ta	!
16AAA/Jk)	.	.	16dd#\	Ta	.
=61	=61	=61	=61	=61	=61
2.GGG#/	(4d# 4c# 4F#/	.	8d#/	czcza	.
.	.	.	8e/	piel-	.
.	4f# 4d# 4c#/)	.	8f#/	-grzym-	.
.	.	.	8cc#\	-ka	.
.	(4a 4d# 4B#X/	.	8b#X\	po	.
.	.	.	4a^^/	mrocz-	.
(8.GG#/L	4d# 4B# 4A/)	.	.	.	.
.	.	.	8b#\	-nym	.
16GGG#/Jk)	.	.	.	.	.
!!LO:LB:g=original
=62	=62	=62	=62	=62	=62
2.CC#/	(4g# 4e 4c#/	.	(8g#/L	świe-	.
.	.	.	8cc#/J)	.	.
.	4e 4c# 4G#/	.	4cc#\	-cie,	.
.	4g# 4e 4c#/	.	8r	.	.
!	!	!	!	!LO:MO:mod=nie-	!
.	.	.	8cc#\	Nie-	.
4r	4e 4c# 4G#/)	.	8bn\	-wy-	.
.	.	.	8cc#\	-pła-	.
=63	=63	=63	=63	=63	=63
(2.GGG#/	(4g# 4d# 4Bn/	.	8dd#\	-ka-	.
.	.	.	8b\	-na	.
.	4d# 4B 4G#/)	.	(8f##X/L	łza	.
.	.	.	8g#/J)	.	.
.	(4a#X 4e 4c#/	.	4a#X/	pod	.
4GG#/)	4e 4G#/)	.	(8g#/L	po-	.
.	.	.	8e/J)	.	.
=64	=64	=64	=64	=64	=64
(4.GGG#/	(4b 4f# 4d#/	.	(8d#/L	-wie-	.
.	.	.	8f#X/J)	.	.
.	4g# 4f# 4d# 4B/)	.	8g#/	-ką,	.
8GG#/)	.	.	8r	.	.
!	!	!	!	!LO:MO:mod=resz-	!
(4.CC#/	(4a#X 4e 4c#/	.	4e/	Resz-	.
.	4e 4c# 4G#/)	.	8.e/	-ta	.
8BBB/)	.	.	.	.	.
.	.	.	16d#/	da-	.
=65	=65	=65	=65	=65	=65
(4.AAA#X/	(4a#X 4e 4c#/	.	(8c#/L	-le-	.
.	.	.	8d#/J)	.	.
!	!	!	!	!LO:MO:mod=-ko	!
.	4e 4c# 4G#/)	.	4e/	-ko...	.
8AA#X/)	.	.	.	.	.
2DD#/	(4b 4f##X 4c#/	.	8r	.	.
.	.	.	8b\	ach,	.
.	4d# 4c# 4F##X/)	.	8.b\	jak	.
.	.	.	16f##X/	da-	.
!!LO:PB:g=original
=66	=66	=66	=66	=66	=66
(4.GGG#/	(4d# 4B 4G#/	.	4a#X/	-le-	.
.	4g# 4d# 4B/)	.	4g#/	-ko!	.
8GG#/)	.	.	.	.	.
!LO:SIC:s=4FF#T	!	!	!	!	!
4FF#TT/	4g# 4d# 4B#X/	.	4r	.	.
!	!LO:TX:b:t=colla parte:mod=	!	!LO:TX:a:t=riten:mod=	!	!
(8qEE/	.	.	.	.	.
!!LO:TX:a:i:t= :mod=rit.
!	!LO:TX:a:i:t= :mod=colla parte	!	!LO:MO:mod=*null:null	!	!
*	*	*	*Xbrackettup	*	*
4DD#/)	4g# 4f# 4B# 4G#/	.	12g#/	Kwia-	.
.	.	.	12an/	-ty	.
.	.	.	12g#/	się	.
=67	=67	=67	=67	=67	=67
!	!LO:MO:mod=*tuplet	!	!	!	!
*	*null	*	*	*	*
2CC#/	(12g#L 12e/	pp	(8g#/L	w_no-	.
.	12c# 12G#/	.	.	.	.
.	.	.	8f#/J)	.	.
.	12g#J 12e/	.	.	.	.
.	4c# 4G#/)	<	8e/	-we	.
.	.	.	8b\	o-	.
2r	12r	.	4a/	-sy-	.
.	(12gg#L 12ee\	.	.	.	.
.	12cc#J 12g#\)	.	.	.	.
!	!	!LO:MO:mod=.	!	!	!
.	12r	[	4g#/	-pią	.
.	(12g#L 12e/	.	.	.	.
!	!	!LO:MO:null:mod=[[	!	!	!
.	12c#J 12G#/)	.	.	.	.
=68	=68	=68	=68	=68	=68
!	!LO:MO:mod=*Xtuplet	!	!	!	!
*	*null	*	*	*	*
2AAA/	(12f#L 12d#/	.	(8f#\L	cza-	.
.	12c# 12F#/	.	.	.	.
.	.	.	8ee\J)	.	.
.	12f#J 12d#/	.	.	.	.
.	4c# 4F#/)	.	8dd#\	-ry,	.
.	.	.	8r	.	.
!	!	!	!	!LO:MO:mod=wios-	!
2r	12r	.	4cc#\	Wios-	.
.	(12ff#L 12dd#\	.	.	.	.
.	12cc#J 12f#\)	.	.	.	.
.	12r	.	8cc#\	-ny	.
.	(12f#L 12d#/	.	.	.	.
.	.	.	8dd#\	po	.
.	12c#J 12F#/)	.	.	.	.
!!LO:LB:g=original
=69	=69	=69	=69	=69	=69
!	!	!	!	!	!LO:DY:a
(2GGG#\	12r	.	8d#/	wios-	<
.	(>>12d#L 12c#/	.	.	.	.
.	.	.	8e/	-nach	.
.	12F#<J 12D#</	.	.	.	.
.	12f#L 12d#/	<	8f#/	zbu-	.
!	!LO:SIC:s=12c#< 12F#<	!	!	!	!
.	12c# 12F#</	.	.	.	.
!	!	!	!	!	!LO:MO:null:mod=[[
.	.	.	8cc#\	-dzą	.
.	12f#J 12d#/)	.	.	.	.
!	!	!	!	!	!LO:MO:mod=.
2GG#\)	12r	.	(<8b#X/L	świat	[
.	(>>12d#L 12B#X/	.	.	.	.
.	.	.	8a/J	.	.
.	12F#<J 12D#</	.	.	.	.
.	12g#L 12d#/	.	4b#\)	.	.
.	12B#X< 12F#</	.	.	.	.
.	12g#J 12d#/)	.	.	.	.
=70	=70	=70	=70	=70	=70
2GG# 2CC#\	12r	.	(8g#/L	sta-	.
.	(>>12eL 12c#/	.	.	.	.
.	.	.	8cc#/J)	.	.
.	12G#<J 12E</	.	.	.	.
.	4g# 4e/)	.	4cc#\	-ry,	.
2C#/	12r	.	8r	.	.
!	!	!LO:MO:null:mod=>	!	!	!
.	(>>12g#L 12e/	.	.	.	.
!	!	!	!	!LO:MO:mod=lecz	!
.	.	.	8cc#\	Lecz	.
.	12c#J 12G#/	.	.	.	.
!	!	!LO:MO:mod=.	!	!	!
.	4cc# 4g#\)	>]	8g#/	już	.
!	!	!LO:MO:null:mod=]]	!	!	!
.	.	.	8cc#\	nie	.
=71	=71	=71	=71	=71	=71
*	*^	*	*	*	*
(2CC#/	4bn 4g# 4e/	4ryy	p	8bn\	błyś-	.
.	.	.	.	8g#/	-nie	.
.	12r	4ryy	.	(8e/L	sen	.
.	(12eL 12c# 12G#/	.	.	.	.	.
.	.	.	.	8b/J)	.	.
.	12bJ 12g# 12e/)	.	.	.	.	.
2C#/)	(8b/L	4e 4c#\	.	(8b/	pod	.
.	8a/J)	.	.	4a/)	.	.
.	12r	4ryy	.	.	.	.
.	(12eL 12c# 12A/	.	.	.	.	.
.	.	.	.	8g#/	po-	.
.	12g#J 12e 12B/)	.	.	.	.	.
!!LO:LB:g=original
=72	=72	=72	=72	=72	=72	=72
2FF#/	(4f#/	4.e 4.A\	.	(4f#/	-wie-	.
.	8g#/L	.	.	8g#/L	.	.
.	8f#/J)	8d# 8A\	.	8f#/J)	.	.
!LO:SIC:s=(<<4AA	!	!	!	!	!	!
(>4AA\	2c# 2F#< 2D#</	2ryy	.	4c#/	-ką,	.
8BB\L	.	.	.	4r	.	.
8AA\J)	.	.	.	.	.	.
*	*v	*v	*	*	*	*
=73	=73	=73	=73	=73	=73
!	!	!LO:HP:a	!	!	!
2GG#\	2B#<X 2F#< 2D#</	<	(8B#X/L	Tam-	.
.	.	.	8c#/J)	.	.
.	.	.	4d#/	-to	.
2FF#;<<\	2c#< 2A< 2E<;/	[[	8r	.	.
.	.	.	8e/	da-	.
.	.	.	8.g#;/	-le-	.
!	!	!	!	!LO:MO:mod=-ko	!
.	.	.	16f#/	-ko...	.
=74	=74	=74	=74	=74	=74
2DD#^>\	2c#< 2A< 2F#<^/	.	4r	.	.
.	.	.	4a/	ach!	.
!	!LO:MO:mod=!LO&colon;TX&colon;b&colon;i&colon;t=rall.	!	!	!	!
!	!LO:TX:b:t=rall	!	!	!	!
2GG#\	2B#<X 2G#< 2F#</	.	8r	.	.
!	!	!	!LO:MO:mod=!LO&colon;TX&colon;a&colon;i&colon;t=rall.	!	!
!	!	!	!LO:TX:a:t=rall	!	!
.	.	.	4g#/	jak	.
.	.	.	8dd#\	da-	.
=75	=75	=75	=75	=75	=75
*ped	*	*	*	*	*
!LO:SIC:s=N(>12CC#\L	!	!	!	!	!
N(12CC#\L	4r	pp	1dd#	-le-	.
12GG#\	.	.	.	.	.
12C#\J	.	.	.	.	.
4r	12D#</L	.	.	.	.
.	12E</	.	.	.	.
.	12G#</J	.	.	.	.
2r	12c#/L	.	.	.	.
.	12d#/	.	.	.	.
.	12e/J	.	.	.	.
*Xped	*	*	*	*	*
.	12g#\L	.	.	.	.
.	12cc#\	.	.	.	.
.	12dd#\J	.	.	.	.
!!LO:LB:g=original
=76	=76	=76	=76	=76	=76
!	!LO:MO:mod=!LO&colon;TX&colon;b&colon;i&colon;t=dolcissimo	!	!	!	!
!	!LO:TX:b:t=dolcissimo	!	!	!	!
2r	4ee\N)	.	[1cc#	-ko!	.
.	4r	.	.	.	.
4b>:: 4g#>: 4e>:\	4bb: 4gg#: 4ee::/	.	.	.	.
4a>:: 4f#>: 4c#>:\	4aa: 4ff#: 4cc#::/	.	.	.	.
=77	=77	=77	=77	=77	=77
*ped	*	*	*	*	*
4g#>:: 4e>: 4c#>:\	4gg#: 4ee: 4cc#::/	.	2cc#\]	.	.
4r	4r	.	.	.	.
4c#:: 4G#: 4C#:\	4ee: 4cc#: 4g#: 4e::/	.	2r	.	.
4r	4r	.	.	.	.
=78	=78	=78	=78	=78	=78
2.E:: 2.GG#: 2.CC#:/	2.cc#: 2.g#: 2.e: 2.c#::/	.	1r	.	.
4r	4r	.	.	.	.
==	==	==	==	==	==
*-	*-	*-	*-	*-	*-
!!LO:MO:ori
!!!system-decoration: {(s1,p2)}
!!LO:MO:mod
!! !!!system-decoration: <s1>{(p2)}
!!LO:MO:end
!!!RDF**kern: > = above
!!!RDF**kern: < = below
!!!RDF**kern: N = linked
!!!filter-modern: shed -k -e "s/([^a-gA-Gn#X-])[<>]/$1/g" | shed -e "s/TX(.*):t=P:/tx$1:t=P:/LG" | sic -sq | modori -m | autostem -r | humtr -p
!!!ENC: Berenika Jozajtis
!!!END: 2021-05-31
!!!EED: Kamil Watkowski
!!!EEV: 2021-06-10
!!!ENC-modern: Andrzej Kubiczek
!!!END-modern: 2022-08-18
